X: 291
T: Maysville
B: canberra pickers and fiddlers
B: tunes
M:C|
L:1/8
Q: 1/4=100
K:C
V:1 
|:"C"GcAG c2 cd|[e2e2] [e2e2][e3e3][de]|[c2e2][c2e2] cdeg|edcd A2G2|
GFGA c2c2|cdeg "F"a4|abag ec A2|FGAc "G"d3c|d2 de d2A2|"C"cAcd c4:|
|:"C"cdeg "F"a2a2|abag e2[c2e2]|agab ag e2|[ce][Ae] [c2e2] "Am"[e4e4]-|
[M:3/2]e8 e2 [d2e2]|[M:C|]e2 ed "C"[c2e2][c2e2]|[ce][de][ce][ce] "F"A2[F2A2]|FDFG ABcA|dc "Am"A2 A4-|[M:6/4]A8-A4:|]
% abcbook-tune_id 63da593423d3cd0128b2b7e1
% abcbook-tune_composer_id 
% abcbook-link-0 https://www.youtube.com/watch?v=Chp_FMaSgp0
% abcbook-boost 0
% abcbook-difficulty 0
% abcbook-tags canberra pickers and fiddlers,old time tunes,© free
% abcbook-tablature 
% abcbook-transpose 
% abcbook-tuning GDAE
% abcbook-lastupdated 1729479224898
% abcbook-src-url https://tunebook.net/scrape/tunes.abc
% abcbook-soundfonts 
% abcbook-repeats 1
%%gchordfont "itim-music,Itim" 20

